X:451
T:My Lodging's on the Cold Ground
S:Bruce & Emmett's Drummers and Fifers Guide (1862), p. 45
M:3/4
L:1/4
Q:1/4=180
K:G
%%MIDI program 72
%%MIDI transpose 8
%%MIDI ratio 3 1
B/>A/|G>AG|GBd|ceg|g2f/e/|d>cB|AGA|B3-|B z/c/B/A/|
G>AG|GBd|ceg|g2f/e/|d<gB|AGA|G3-|Gz::
d|dBg|g2d|ecg|g2f/e/|d>cB|AGA|B3-|B z/c/B/A/|
G>AG|GBd|ceg|g2f/e/|d<gB|AGA|G3-|Gz:|

